X:5192
T:Fiddle and Foot
C:Jim Magill
R:reel
M:4/4
L:1/8
K:A
z2|a2e2 cdeg|a2e2 c4|a2e2 ABcd|c2B2 B2g2|
a2e2 cdeg|a2e2 c4|d2B2 GABd|c2A2 A2:|
|:z2|A2c2 e_e=ef|e2d2 d4|B2d2 g2fg|f2e2 e4|
A2c2 e_e=ef|e2d2 d4|B2d2 g2fg|b2a2 a2:|
